X:58
T: Die entfuehrte Graserin
N: Q0045A
O: Mitteleuropa, Deutschland / Frankreich, Lothringen
N: Kleinere Strophenvarianten abgedruckt. Verzierungen (Vorschlaege).
N: (Text) - Anhaengsel an der dritten Zeile.
R: Ballade, Pastorelle, Entfuehrung, Tod
M: 2/4
L: 1/16
K: F
 | F3FF4 | c3cd4 | c4B2A2 | G4z2
c2 | c2B2A2G2 | F4G4 | D4D4 | C4z2
C2 | F4F4 | G4c2B2 | A4A4 | A8 | A2G2G2A2 | F8

